X:118
T:Ma chanson n'est pas jolie
C:Jacquemin de la Vente
R:Chanson satirique
M:6/8
L:1/8
K:C
P:A
c2A B2c |  A2B G2F | \
A2A G2c |  B3 B2z |
c2A B2c |  A2B G2F | \
A2c A2B |1 (AGF) G2z :|2 (AGF) AGz || 
P:B
E2D E2F | G2A G2F | A2A G2c | B3 B2z |
E2D E2F | G2A G2F | A2c A2B | (AGF) G2z |]





